!!!!SEGMENT: pl-kk--kk-i-40--003-002_guami-gioseffo--missa-in-me-transierunt-et-in-terra.krn
!!!cenid: 16xx:1286
!!!COM: Guami, Gioseffo
!!!COM-rismid: pe20000528
!!!CDT: 1542/01/27-1611
!!!CNT: Italian
!!!OPR: Missa In me transierunt
!!!OTL: Et in terra
!!!OMV: 002
!!!PDT:
!!!AGN: Sacred; Mass
!!!SMS-siglum: PL-Kk
!!!SMS-shelfmark: Kk.I.40
!!!SMS-shelfwork: 003-002 M
!!!SMS-variant:
!!!SMS-altvar:
!!!NIFC-rismid: 1001154489
!!!URL-scan: http://repozytorium.nifc.pl/skany/pl-kk-nut--i-40
!!!ONB-nifc: UWAGA: części Mszy: 1. Kyrie, 2. Et in terra, 3. Sanctus, 4. Agnus Dei. Skan 0006-0007
**kern	**text
*Ibass	*
*I"Baſso Ripieno.	*
*I'B rip	*
*clefF4	*
*k[]	*
*d:	*
*M2/1	*
*met(c|)	*
=1-	=1-
!LO:TX:t=P:problem:oddech/cezura na różnej wysokości:global	!
0r	.
=2-	=2-
!LO:TX:t=P:problem:kreska pseudotaktowa	!
1r	.
0A	Et
=3-	=3-
.	.
1AA	in
=4-	=4-
1.C	ter-
*2\right	*
!LO:TX:t=P:problem:kreska pseudotaktowa	!
2D\	-ra
=5-	=5-
2E\	pax
2E\	ho-
2C/	-mi-
2D\	-ni-
=6-	=6-
2GG,/	-b(us)
1C	bo-
!LO:TX:t=P:problem:kreska pseudotaktowa	!
2BB/	-nae
=7-	=7-
2C/	vo-
2AA/	-lun-
1E	-ta-
=8-	=8-
!LO:TX:t=P:problem:kreska pseudotaktowa	!
1AA	-tis
2r	.
2E\	Lau-
=9-	=9-
2A\	-da-
2D\	-m(us)
!LO:TX:t=P:problem:kreska pseudotaktowa	!
1A	Te
=10-	=10-
*	*ij
1D	Lau-
2A\	-da-
2AA/	-m(us)
=11-	=11-
2E,\	Te
*	*Xij
1E	be-
2C/	-ne-
=12-	=12-
*lig	*
1C	-di-
1GG	.
*Xlig	*
=13-	=13-
1D	.
1AA	-ci-
=14-	=14-
2.C/	-mus
!LO:TX:t=P:problem:kreska pseudotaktowa	!
4D/	.
!LO:LB:g=original	!
1E	Te
=15-	=15-
!LO:TX:t=P:problem:kreska pseudotaktowa	!
1AA	.
1.G	a-
=16-	=16-
.	.
2GG/	-do-
2C/	-ra-
2GG/	-m(us)
=17-	=17-
*lig	*
1C	Te
!LO:TX:t=P:problem:kreska pseudotaktowa	!
1D	.
*Xlig	*
=18-	=18-
0r	.
=19-	=19-
!LO:TX:t=P:problem:kreska pseudotaktowa	!
1r	.
2r	.
1A\	Gra-
=20-	=20-
.	.
!LO:TX:t=P:problem:kreska pseudotaktowa	!
2G\	-ti-
2E,\	-as
1G\	a-
=21-	=21-
.	.
4F\	.
!LO:TX:t=P:problem:kreska pseudotaktowa	!
4E\	.
2D\	.
2E\	-gi-
=22-	=22-
2F\	-mus
!LO:TX:t=P:problem:kreska pseudotaktowa	!
[<2E\	Ti-
!LO:N:xstem:cue	!
4E]	.
4D/	.
1C/	.
=23-	=23-
.	.
4BB/	.
4AA/	.
!LO:TX:t=P:problem:kreska pseudotaktowa	!
1BB	.
=24-	=24-
2AA,/	-bi
1D	pro-
2D\	-pter
=25-	=25-
1D	ma-
!LO:TX:t=P:problem:kreska pseudotaktowa	!
1GG	-gn(am)
=26-	=26-
1D	glo-
2A\	-ri-
!LO:TX:t=P:problem:kreska pseudotaktowa	!
2G#X\	-am
!LO:LB:g=original	!
=27-	=27-
1A	tu-
!LO:TX:t=P:problem:kreska pseudotaktowa	!
1E	-am
=28-	=28-
!LO:TX:t=P:problem:kreska pseudotaktowa	!
!LO:N:vis=00	!
00r	.
=29-	=29-
.	.
=30-	=30-
1C	Do-
2C/	-mi-
!LO:TX:t=P:problem:kreska pseudotaktowa	!
2AA/	-ne
=31-	=31-
1BB-X	De-
!LO:TX:t=P:problem:kreska pseudotaktowa	!
1AA	-us
=32-	=32-
1.A	Rex
2A\	cae-
=33-	=33-
1F	-leſ-
2C,/	-tis
1C/	De-
=34-	=34-
.	.
!LO:TX:t=P:problem:kreska pseudotaktowa	!
2C/	-us
1D	Pa-
=35-	=35-
2GG/	-ter
2Gny\	o-
2F#X\	-mni-
2G\	-po-
=36-	=36-
!LO:TX:t=P:problem:kreska pseudotaktowa	!
1A	-tens,
1G	Do-
=37-	=37-
2G\	-mi-
2E\	-ne
!LO:TX:t=P:problem:kreska pseudotaktowa	!
1Fny	Fi-
=38-	=38-
2E,\	-li
1C	u-
2GG/	-ni-
=39-	=39-
2D\	-ge-
!LO:TX:t=P:problem:kreska pseudotaktowa	!
2D\	-ni-
2C,/	-te
1F\	Je-
=40-	=40-
.	.
!LO:TX:t=P:problem:kreska pseudotaktowa	!
2C/	-su
!LO:LB:g=original	!
1G	(Chris)-
=41-	=41-
!LO:TX:t=P:problem:kreska pseudotaktowa	!
1D	-te
2r	.
1A\	Do-
=42-	=42-
.	.
2G\	-mi-
2D\	-ne
1E\	De-
=43-	=43-
.	.
!LO:TX:t=P:problem:kreska pseudotaktowa	!
2F\	-(us)
2F\	A-
2E\	-gn(us)
=44-	=44-
2.G\	De-
4F\	.
2E\	.
!LO:TX:t=P:problem:kreska pseudotaktowa	!
2D,\	-i
=45-	=45-
1A	Fi-
2A\	-li-
2AA/	-us
=46-	=46-
2.E\	Pa-
4D/	.
2C/	.
4BBny/	.
!LO:TX:t=P:problem:kreska pseudotaktowa	!
4AA/	.
=47-	=47-
0E	.
=48-	=48-
0AA	.
=49-	=49-
0E;>	-tris.
!LO:PB:g=original	!
=50||-	=50||-
*M2/1	*
*met(c|)	*
!LO:TX:t=P:problem:kreska pseudotaktowa	!
1r	.
1A	Qui
=51-	=51-
1F	tol-
2E\	-lis
!LO:TX:t=P:problem:kreska pseudotaktowa	!
2C/	p(e)c-
=52-	=52-
2G\	-(ca)-
2G\	-ta
1A	mun-
=53-	=53-
!LO:TX:t=P:problem:kreska pseudotaktowa	!
1E,	-di
0r	.
=54-	=54-
.	.
!LO:TX:t=P:problem:kreska pseudotaktowa	!
!LO:N:vis=1	!
1r	.
=55-	=55-
2r	.
1E	mi-
!LO:TX:t=P:problem:kreska pseudotaktowa	!
2C/	-ſe-
=56-	=56-
2D\	-re-
2E\	-re
1F	no-
=57-	=57-
!LO:TX:t=P:problem:kreska pseudotaktowa	!
0E,	-bis
=58-	=58-
!LO:TX:t=P:problem:kreska pseudotaktowa	!
0r	.
=60-	=60-
1.G	mi-
2E\	-ſe-
=61-	=61-
2F\	-re-
2G\	-re
1A	no-
=62-	=62-
!LO:TX:t=P:problem:kreska pseudotaktowa	!
1G,	-bis.
1C	Qui
=63-	=63-
1BB-X	tol-
!LO:TX:t=P:problem:kreska pseudotaktowa	!
1AA	-lis
=64-	=64-
!LO:TX:t=P:problem:kreska pseudotaktowa	!
1r	.
1E	pec-
=65-	=65-
1G	-ca-
!LO:TX:t=P:problem:kreska pseudotaktowa	!
1D,	-ta
=66-	=66-
1E	mun-
2AA/	-di
1F\	Suſ-
=67-	=67-
.	.
2F\	-ci-
!LO:TX:t=P:problem:kreska pseudotaktowa	!
1C	-pe
!LO:LB:g=original	!
=68-	=68-
1.A	de-
2AA/	-pre-
=69-	=69-
2.E\	-ca-
!LO:TX:t=P:problem:kreska pseudotaktowa	!
4D/	-ti-
2C/	-o-
2BBny/	-(ne)m
=70-	=70-
1AA	no-
!LO:TX:t=P:problem:kreska pseudotaktowa	!
1AA,	-ſtr(am)
=71-	=71-
1r	.
2r	.
!LO:TX:t=P:problem:kreska pseudotaktowa	!
2E\	Qui
=72-	=72-
2.A\	se-
4G\	.
2F\	.
!LO:TX:t=P:problem:kreska pseudotaktowa	!
2E\	-des
=73-	=73-
2D\	ad
2.A\	dex-
4A\	-te-
!LO:TX:t=P:problem:kreska pseudotaktowa	!
2A\	-r(am)
=74-	=74-
1B-X	Pa-
!LO:TX:t=P:problem:kreska pseudotaktowa	!
1A,	-tris
=75-	=75-
!LO:N:vis=00	!
00r	.
=76-	=76-
.	.
=77-	=77-
!LO:TX:t=P:problem:kreska pseudotaktowa	!
1r	.
2r	.
2C/	mi-
=78-	=78-
2D\	-ſe-
!LO:TX:t=P:problem:kreska pseudotaktowa	!
2E\	-re-
2AA/	-re
2.F\	no-
=79-	=79-
.	.
4E\	.
1E	.
2D\	-bis.
=80-	=80-
!LO:TX:t=P:problem:kreska pseudotaktowa	!
1E,	.
0r	.
=81-	=81-
.	.
!LO:TX:t=P:problem:kreska pseudotaktowa	!
!LO:N:vis=1	!
1r	.
=82-	=82-
1.G	Quo-
2GG/	-ni-
=83-	=83-
2C/	-am
!LO:TX:t=P:problem:kreska pseudotaktowa	!
!LO:SIC:v:t=custos GG	!
2AA/	Tu
!LO:LB:g=original	!
2GG/	so-
2G\	-lus
=84-	=84-
1C	San-
2GG/	.
!LO:TX:t=P:problem:kreska pseudotaktowa	!
2D\	.
=85-	=85-
2G\	.
2E\	.
1A	-ctus
=86-	=86-
!LO:TX:t=P:problem:kreska pseudotaktowa	!
1G,	.
0r	.
=87-	=87-
.	.
!LO:TX:t=P:problem:kreska pseudotaktowa	!
!LO:N:vis=1	!
1r	.
=88-	=88-
2r	.
2C/	Tu
2D\	so-
!LO:TX:t=P:problem:kreska pseudotaktowa	!
2E\	-lus
=89-	=89-
4F\	Do-
4E\	.
4D\	.
4C\	.
2BB-X/	.
2AA/	-mi-
=90-	=90-
2D,\	-n(us)
!LO:TX:t=P:problem:kreska pseudotaktowa	!
2D\	Tu
1D	so-
=91-	=91-
2GG/	-l(us)
2G\	al-
2.D\	-tiſ-
4D\	-si-
=92-	=92-
2GG,/	-m(us)
1G	Je-
!LO:TX:t=P:problem:kreska pseudotaktowa	!
2G\	-su
=93-	=93-
(>1A	(Chis)-
1AA)	-te.
=94-	=94-
!LO:TX:t=P:problem:kreska pseudotaktowa	!
1E,	.
0r	.
=95-	=95-
.	.
!LO:TX:t=P:problem:kreska pseudotaktowa	!
!LO:N:vis=1	!
1r	.
=96-	=96-
2r	.
2E\	Cum
2E\	S(an)-
!LO:TX:t=P:problem:kreska pseudotaktowa	!
2C#X/	-cto
!LO:LB:g=original	!
=97-	=97-
2D/	Spi-
2BBny/	-ri-
*lig	*
1AA	-tu
=98-	=98-
!LO:TX:t=P:problem:kreska pseudotaktowa	!
1E	.
*Xlig	*
2r	.
2BB/	in
=99-	=99-
2Cny/	glo-
2D/	-ri-
!LO:TX:t=P:problem:kreska pseudotaktowa	!
1E	-a
=100-	=100-
1r	.
2r	.
!LO:TX:t=P:problem:kreska pseudotaktowa	!
2AA/	in
=101-	=101-
2BB/	glo-
2C/	-ri-
2D,/	-a
!LO:TX:t=P:problem:kreska pseudotaktowa	!
*	*ij
2GG/	in
=102-	=102-
2AA/	glo-
2BB/	-ri-
2C/	-a
*	*Xij
2D/	De-
=103-	=103-
!LO:TX:t=P:problem:kreska pseudotaktowa	!
1GG	-i
1A	Pa-
=104-	=104-
1G,	-tris
1D	in
=105-	=105-
2AA/	glo-
2AA/	-ri-
1E	-a
=106-	=106-
!LO:TX:t=P:problem:kreska pseudotaktowa	!
1AA	De-
1D	-i
=107-	=107-
*lig	*
1E	Pa-
1F	.
*Xlig	*
=108-	=108-
2E,\	-tris
*	*ij
2E\	De-
2D\	-i
2D\	Pa-
=109-	=109-
!LO:TX:t=P:problem:kreska pseudotaktowa	!
1E	.
1.AA	.
=110-	=110-
.	.
2AA/	-tris
*	*Xij
2E\	A-
2AA/	.
=111-	=111-
*lig	*
1E	.
1AA	.
*Xlig	*
=112-	=112-
0E;>	-men
==	==
*-	*-
!!!RDF**kern: > = above
!!!RDF**kern: < = below
!!!EED: Antoni Szymański
!!!EST: 2021-07-31
!!!AIN: 1 bass
!!!ENC: Berenika Jozajtis
!!!END: 2021-07-04
